assets/os_logos/ubuntu.svg

<svg enable-background="new -0.866 -0.866 285 285" height="285" viewBox="-.866 -.866 285 285" width="285" xmlns="http://www.w3.org/2000/svg"><path d="m283.465 141.734c0 78.273-63.457 141.73-141.734 141.73s-141.731-63.456-141.731-141.73c0-78.279 63.453-141.734 141.73-141.734s141.735 63.455 141.735 141.734z" fill="#dd4814"/><path d="m45.356 122.812c-10.453 0-18.923 8.47-18.923 18.923 0 10.449 8.47 18.92 18.923 18.92 10.449 0 18.92-8.471 18.92-18.92 0-10.454-8.47-18.923-18.92-18.923zm135.107 86.002c-9.051 5.225-12.149 16.793-6.926 25.84 5.226 9.051 16.793 12.151 25.844 6.926 9.048-5.224 12.148-16.792 6.923-25.842-5.224-9.047-16.793-12.148-25.841-6.924zm-94.005-67.082c0-18.701 9.293-35.219 23.504-45.221l-13.834-23.173c-16.56 11.064-28.878 27.978-33.995 47.788 5.977 4.872 9.796 12.291 9.796 20.608 0 8.315-3.819 15.734-9.797 20.605 5.116 19.812 17.435 36.726 33.995 47.789l13.835-23.175c-14.211-10-23.504-26.517-23.504-45.221zm55.275-55.275c28.877 0 52.564 22.141 55.047 50.373l26.968-.394c-1.327-20.844-10.432-39.562-24.425-53.319-7.194 2.718-15.505 2.306-22.688-1.842-7.192-4.152-11.705-11.156-12.941-18.757-6.992-1.935-14.351-2.99-21.96-2.99-13.086 0-25.449 3.072-36.431 8.512l13.146 23.56c7.077-3.293 14.963-5.143 23.284-5.143zm0 110.551c-8.322 0-16.207-1.85-23.285-5.143l-13.148 23.562c10.983 5.438 23.347 8.511 36.433 8.511 7.609 0 14.968-1.055 21.961-2.99 1.236-7.601 5.75-14.605 12.943-18.76 7.183-4.146 15.494-4.558 22.688-1.839 13.992-13.758 23.097-32.476 24.422-53.32l-26.968-.394c-2.481 28.236-26.169 50.373-55.046 50.373zm38.727-122.359c9.05 5.227 20.619 2.126 25.842-6.921 5.226-9.051 2.128-20.619-6.923-25.845-9.049-5.224-20.617-2.124-25.843 6.927-5.224 9.047-2.124 20.616 6.924 25.839z" fill="#fff"/></svg>

<?xml version="1.0" encoding="UTF-8"?>
<!-- Generator: Adobe Illustrator 14.0.0, SVG Export Plug-In  -->
<!DOCTYPE svg PUBLIC "-//W3C//DTD SVG 1.1//EN" "http://www.w3.org/Graphics/SVG/1.1/DTD/svg11.dtd" [
	<!ENTITY ns_flows "http://ns.adobe.com/Flows/1.0/">
]>
<svg version="1.1" xmlns="http://www.w3.org/2000/svg" xmlns:xlink="http://www.w3.org/1999/xlink" xmlns:a="http://ns.adobe.com/AdobeSVGViewerExtensions/3.0/" x="0px" y="0px" width="285px" height="285px" viewBox="-0.866 -0.866 285 285" enable-background="new -0.866 -0.866 285 285" xml:space="preserve">
<defs>
</defs>
<path fill="#DD4814" d="M283.465,141.734c0,78.273-63.457,141.73-141.734,141.73S0,220.008,0,141.734C0,63.455,63.453,0,141.73,0  S283.465,63.455,283.465,141.734z"/>
<path fill="#FFFFFF" d="M45.356,122.812c-10.453,0-18.923,8.47-18.923,18.923c0,10.449,8.47,18.92,18.923,18.92  c10.449,0,18.92-8.471,18.92-18.92C64.276,131.281,55.806,122.812,45.356,122.812z M180.463,208.814  c-9.051,5.225-12.149,16.793-6.926,25.84c5.226,9.051,16.793,12.151,25.844,6.926c9.048-5.224,12.148-16.792,6.923-25.842  C201.08,206.691,189.511,203.59,180.463,208.814z M86.458,141.732c0-18.701,9.293-35.219,23.504-45.221L96.128,73.338  c-16.56,11.064-28.878,27.978-33.995,47.788c5.977,4.872,9.796,12.291,9.796,20.608c0,8.315-3.819,15.734-9.797,20.605  c5.116,19.812,17.435,36.726,33.995,47.789l13.835-23.175C95.751,176.953,86.458,160.436,86.458,141.732z M141.733,86.457  c28.877,0,52.564,22.141,55.047,50.373l26.968-0.394c-1.327-20.844-10.432-39.562-24.425-53.319  c-7.194,2.718-15.505,2.306-22.688-1.842c-7.192-4.152-11.705-11.156-12.941-18.757c-6.992-1.935-14.351-2.99-21.96-2.99  c-13.086,0-25.449,3.072-36.431,8.512l13.146,23.56C125.526,88.307,133.412,86.457,141.733,86.457z M141.733,197.008  c-8.322,0-16.207-1.85-23.285-5.143L105.3,215.427c10.983,5.438,23.347,8.511,36.433,8.511c7.609,0,14.968-1.055,21.961-2.99  c1.236-7.601,5.75-14.605,12.943-18.76c7.183-4.146,15.494-4.558,22.688-1.839c13.992-13.758,23.097-32.476,24.422-53.32  l-26.968-0.394C194.298,174.871,170.61,197.008,141.733,197.008z M180.46,74.649c9.05,5.227,20.619,2.126,25.842-6.921  c5.226-9.051,2.128-20.619-6.923-25.845c-9.049-5.224-20.617-2.124-25.843,6.927C168.312,57.857,171.412,69.426,180.46,74.649z"/>
</svg>
